static/img/common/monitoring-map-area-icon.svg

<svg width="45" height="45" viewBox="0 0 45 45" fill="none" xmlns="http://www.w3.org/2000/svg">
<circle cx="22.5" cy="22.5" r="22.5" fill="#9336FF"/>
<path d="M33.75 9.375C33.7441 9.12823 33.6434 8.89322 33.4688 8.71867C33.2943 8.54413 33.0593 8.44345 32.8125 8.4375H12.1875C11.9407 8.44345 11.7057 8.54413 11.5312 8.71867C11.3566 8.89322 11.2559 9.12823 11.25 9.375V35.625C11.2559 35.8718 11.3566 36.1068 11.5312 36.2813C11.7057 36.4559 11.9407 36.5566 12.1875 36.5625H32.8125C33.0593 36.5566 33.2943 36.4559 33.4688 36.2813C33.6434 36.1068 33.7441 35.8718 33.75 35.625V9.375ZM24.375 13.125H30V16.875H24.375V13.125ZM30 23.4375H24.375V19.6875H30V23.4375ZM15 13.125H20.625V16.875H15V13.125ZM15 23.4375V19.6875H20.625V23.4375H15ZM18.75 34.6875V28.125C18.7559 27.8782 18.8566 27.6432 19.0312 27.4687C19.2057 27.2941 19.4407 27.1934 19.6875 27.1875H25.3125C25.5593 27.1934 25.7943 27.2941 25.9688 27.4687C26.1434 27.6432 26.2441 27.8782 26.25 28.125V34.6875H18.75Z" fill="white"/>
</svg>

<svg xmlns="http://www.w3.org/2000/svg" width="45" height="45" fill="none" viewBox="0 0 45 45"><circle cx="22.5" cy="22.5" r="22.5" fill="#9336ff"/><path fill="#fff" d="M33.75 9.375a.96.96 0 0 0-.937-.937H12.186a.96.96 0 0 0-.937.937v26.25a.96.96 0 0 0 .938.938h20.624a.96.96 0 0 0 .938-.938zm-9.375 3.75H30v3.75h-5.625zM30 23.438h-5.625v-3.75H30zM15 13.125h5.625v3.75H15zm0 10.313v-3.75h5.625v3.75zm3.75 11.25v-6.563a.96.96 0 0 1 .938-.937h5.625a.96.96 0 0 1 .937.937v6.563z"/></svg>
